X: 43
T:The First Frost
% Nottingham Music Database
S:John Goodacre 1983, via PR
M:4/4
L:1/4
K:D
"D"FF AF|"A7"GB/2G/2 EE|"D"FD CD|"A7"E/2F/2G/2E/2 "D"A2|"Bm"FF AF|\
"Em"GB/2G/2 "A7"EE|"D"FD "A7"EC|"D"D2 D2::
"D"dd AB|"A7"cB A2|"D"dd AB|"A"cd/2c/2 "G"BA/2G/2|"D"FF AF|
"Em"GB/2G/2 "A7"EE|"D"FD "A7"EC| [1"D"D2 D2:|[2"D"DF/2A/2 d2||


